dist/img/phone.svg

<?xml version="1.0" encoding="UTF-8"?>
<svg width="21px" height="32px" viewBox="0 0 21 32" version="1.1" xmlns="http://www.w3.org/2000/svg" xmlns:xlink="http://www.w3.org/1999/xlink">
    <!-- Generator: Sketch 40 (33762) - http://www.bohemiancoding.com/sketch -->
    <title>noun_668192_cc</title>
    <desc>Created with Sketch.</desc>
    <defs></defs>
    <g id="Page-1" stroke="none" stroke-width="1" fill="none" fill-rule="evenodd" opacity="0.5">
        <g id="02-doubler-page" transform="translate(-731.000000, -3863.000000)" fill="#FFFFFF">
            <g id="noun_668192_cc" transform="translate(731.000000, 3863.000000)">
                <g id="Group">
                    <path d="M18.4285714,0.249350649 L2.74285714,0.249350649 C1.41428571,0.249350649 0.342857143,1.28831169 0.342857143,2.57662338 L0.342857143,29.6727273 C0.342857143,30.961039 1.41428571,32 2.74285714,32 L18.4285714,32 C19.7571429,32 20.8285714,30.961039 20.8285714,29.6727273 L20.8285714,2.53506494 C20.8285714,1.28831169 19.7571429,0.249350649 18.4285714,0.249350649 Z M10.5857143,30.1298701 C9.72857143,30.1298701 9,29.4233766 9,28.5922078 C9,27.761039 9.72857143,27.0545455 10.5857143,27.0545455 C11.4428571,27.0545455 12.1714286,27.761039 12.1714286,28.5922078 C12.1714286,29.4649351 11.4857143,30.1298701 10.5857143,30.1298701 Z M18.4714286,25.3922078 L2.74285714,25.3922078 L2.74285714,2.78441558 L18.4714286,2.78441558 L18.4714286,25.3922078 Z" id="Shape"></path>
                </g>
            </g>
        </g>
    </g>
</svg>

<svg width="21" height="32" viewBox="0 0 21 32" xmlns="http://www.w3.org/2000/svg"><title>noun_668192_cc</title><path d="M18.429.25H2.743c-1.329 0-2.4 1.038-2.4 2.327v27.096C.343 30.96 1.414 32 2.743 32h15.686c1.328 0 2.4-1.039 2.4-2.327V2.535c0-1.247-1.072-2.286-2.4-2.286zm-7.843 29.88C9.729 30.13 9 29.423 9 28.592c0-.831.729-1.537 1.586-1.537.857 0 1.585.706 1.585 1.537 0 .873-.685 1.538-1.585 1.538zm7.885-4.738H2.743V2.784H18.47v22.608z" fill="#FFF" fill-rule="evenodd" opacity=".5"/></svg>
